package/contents/images/terrace-dark.svg

<?xml version="1.0" encoding="UTF-8" standalone="no"?>
<!-- Created with Inkscape (http://www.inkscape.org/) -->

<svg:svg
   xmlns:dc="http://purl.org/dc/elements/1.1/"
   xmlns:cc="http://creativecommons.org/ns#"
   xmlns:rdf="http://www.w3.org/1999/02/22-rdf-syntax-ns#"
   xmlns:svg="http://www.w3.org/2000/svg"
   xmlns:sodipodi="http://sodipodi.sourceforge.net/DTD/sodipodi-0.dtd"
   xmlns:inkscape="http://www.inkscape.org/namespaces/inkscape"
   width="22"
   height="22"
   viewBox="0 0 21.999999 21.999999"
   id="svg7888"
   version="1.1"
   inkscape:version="0.91 r13725"
   sodipodi:docname="philips-hue-room-terrace.svg"
   inkscape:export-filename="/home/jamboarder/Projects/KDE VDG/Phillips Hue Plasmoid/philips-hue-bulb-fill.png"
   inkscape:export-xdpi="523.63635"
   inkscape:export-ydpi="523.63635">
  <svg:defs
     id="defs7890">
    <svg:linearGradient
       id="linearGradient4178">
      <svg:stop
         id="stop4180"
         offset="0"
         style="stop-color:#3c3c3c;stop-opacity:0.24313726" />
      <svg:stop
         id="stop4182"
         offset="1"
         style="stop-color:#232629;stop-opacity:0.01176471" />
    </svg:linearGradient>
    <svg:linearGradient
       id="linearGradient4172">
      <svg:stop
         id="stop4174"
         offset="0"
         style="stop-color:#252525;stop-opacity:0.24313726" />
      <svg:stop
         id="stop4176"
         offset="1"
         style="stop-color:#232629;stop-opacity:0.01176471" />
    </svg:linearGradient>
    <svg:linearGradient
       id="linearGradient4165">
      <svg:stop
         id="stop4167"
         offset="0"
         style="stop-color:#1d2023;stop-opacity:0.24313726" />
      <svg:stop
         id="stop4169"
         offset="1"
         style="stop-color:#232629;stop-opacity:0.00392157" />
    </svg:linearGradient>
    <svg:linearGradient
       id="linearGradient7348">
      <svg:stop
         style="stop-color:#232629;stop-opacity:0.20588236"
         offset="0"
         id="stop7350" />
      <svg:stop
         style="stop-color:#232629;stop-opacity:0.01176471"
         offset="1"
         id="stop7352" />
    </svg:linearGradient>
    <style
       type="text/css"
       id="current-color-scheme">
        .ColorScheme-Text {
        color:#4d4d4d;
      }
    </style>
  </svg:defs>
  <sodipodi:namedview
     id="base"
     pagecolor="#ffffff"
     bordercolor="#666666"
     borderopacity="1.0"
     inkscape:pageopacity="0"
     inkscape:pageshadow="2"
     inkscape:zoom="11.313709"
     inkscape:cx="17.492344"
     inkscape:cy="1.2552844"
     inkscape:document-units="px"
     inkscape:current-layer="layer1"
     showgrid="true"
     units="px"
     inkscape:snap-bbox="true"
     inkscape:bbox-nodes="true"
     inkscape:snap-intersection-paths="true"
     inkscape:snap-midpoints="true"
     inkscape:object-paths="true"
     inkscape:object-nodes="true"
     inkscape:snap-nodes="true"
     showguides="true"
     inkscape:guide-bbox="true"
     inkscape:window-width="1365"
     inkscape:window-height="1011"
     inkscape:window-x="555"
     inkscape:window-y="0"
     inkscape:window-maximized="0"
     inkscape:snap-global="true"
     inkscape:snap-smooth-nodes="true"
     inkscape:bbox-paths="true"
     inkscape:snap-bbox-edge-midpoints="true">
    <inkscape:grid
       type="xygrid"
       id="grid7896"
       empspacing="4"
       originx="0"
       originy="0"
       color="#0000ff"
       opacity="0.12156863" />
    <sodipodi:guide
       position="-4.9999998,19.999999"
       orientation="0,1"
       id="guide8012" />
    <sodipodi:guide
       position="18.999999,5.9999997"
       orientation="1,0"
       id="guide8018" />
    <sodipodi:guide
       position="2.9999999,2.9999999"
       orientation="0,1"
       id="guide8022" />
    <sodipodi:guide
       position="2.9999999,5.9999997"
       orientation="1,0"
       id="guide8024" />
    <sodipodi:guide
       position="10.999999,0"
       orientation="1,0"
       id="guide4302" />
  </sodipodi:namedview>
  <svg:metadata
     id="metadata7893">
    <rdf:RDF>
      <cc:Work
         rdf:about="">
        <dc:format>image/svg+xml</dc:format>
        <dc:type
           rdf:resource="http://purl.org/dc/dcmitype/StillImage" />
        <dc:title />
      </cc:Work>
    </rdf:RDF>
  </svg:metadata>
  <svg:g
     inkscape:label="Layer 1"
     inkscape:groupmode="layer"
     id="layer1"
     transform="translate(0,-1030.3622)">
    <svg:path
       style="color:#000000;clip-rule:nonzero;display:inline;overflow:visible;visibility:visible;opacity:1;isolation:auto;mix-blend-mode:normal;color-interpolation:sRGB;color-interpolation-filters:linearRGB;solid-color:#000000;solid-opacity:1;fill:#4d4d4d;fill-opacity:1;fill-rule:nonzero;stroke:none;stroke-width:1;stroke-linecap:butt;stroke-linejoin:miter;stroke-miterlimit:4;stroke-dasharray:1, 1;stroke-dashoffset:0;stroke-opacity:1;color-rendering:auto;image-rendering:auto;shape-rendering:auto;text-rendering:auto;enable-background:accumulate"
       d="M 10.990234 3 A 8.0000029 3.999984 0 0 0 3 6.984375 L 11 7 L 19 6.9746094 A 8.0000029 3.999984 0 0 0 10.990234 3 z M 11 7 L 10 7 L 10 12 L 12 12 L 12 7 L 11 7 z M 10.992188 4 A 6.0000806 2.0000002 0 0 1 17 5.9882812 L 11 6 L 5 5.9921875 A 6.0000806 2.0000002 0 0 1 10.992188 4 z M 2 10 L 3 15 L 2 19 L 3 19 L 4 16 L 6 16 L 6 19 L 7 19 L 7 16 L 7 15 L 4 15 L 3 10 L 2 10 z M 19 10 L 18 15 L 15 15 L 15 16 L 15 19 L 16 19 L 16 16 L 18 16 L 19 19 L 20 19 L 19 15 L 20 10 L 19 10 z M 5 13 L 5 14 L 10 14 L 10 18 L 9 18 L 9 19 L 13 19 L 13 18 L 12 18 L 12 14 L 17 14 L 17 13 L 5 13 z "
       transform="translate(0,1030.3622)"
       id="path4152" />
  </svg:g>
</svg:svg>

<?xml version="1.0" encoding="UTF-8" standalone="no"?>
<svg xmlns="http://www.w3.org/2000/svg" version="1.1" xmlns:cc="http://creativecommons.org/ns#" xmlns:dc="http://purl.org/dc/elements/1.1/" height="22" viewBox="0 0 21.999999 21.999999" width="22" xmlns:rdf="http://www.w3.org/1999/02/22-rdf-syntax-ns#">
<defs>
<style id="current-color-scheme" type="text/css">.ColorScheme-Text {
        color:#4d4d4d;
      }</style>
</defs>
<g transform="translate(0 -1.03e3)">
<path style="text-rendering:auto;color-rendering:auto;color:#000000;isolation:auto;mix-blend-mode:normal;shape-rendering:auto;solid-color:#000000;image-rendering:auto" d="m11 3a8 4 0 0 0 -8 3.98l8 0.02 8-0.03a8 4 0 0 0 -8 -3.97zm0 4h-1v5h2v-5h-1zm0-3a6 2 0 0 1 6 1.99l-6 0.01-6-0.01a6 2 0 0 1 6 -1.99zm-9 6l1 5-1 4h1l1-3h2v3h1v-3-1h-3l-1-5h-1zm17 0l-1 5h-3v1 3h1v-3h2l1 3h1l-1-4 1-5h-1zm-14 3v1h5v4h-1v1h4v-1h-1v-4h5v-1h-12z" transform="translate(0 1.03e3)" fill="#4d4d4d"/>
</g>
</svg>
